X: 3092
Q:"Reel."
M: C
L: 1/8
K: A
|:\
vA/A/A A2 Acec | dcBc defg |\
a>A A/A/A a2ec | dBcA GBBc ::\
cAce aece |\
[1 A/A/A a2 efce | dBcA GBBc :|\
[2 eaga efce | dBcA GBBc |]


